<?xml version="1.0" encoding="UTF-8"?>
<map version="1.10" tiledversion="1.11.2" orientation="orthogonal" renderorder="right-down" width="20" height="10" tilewidth="25" tileheight="25" infinite="0" nextlayerid="4" nextobjectid="1">
 <tileset firstgid="1" source="Water.tsx"/>
 <tileset firstgid="5" source="Ribbon_Red_3Slides.tsx"/>
 <tileset firstgid="17" source="Banner_Connection_Left.tsx"/>
 <tileset firstgid="66" source="Banner_Connection_Right.tsx"/>
 <layer id="1" name="water" width="20" height="10">
  <data encoding="csv">
1,1,1,1,1,1,1,1,1,1,1,1,1,1,1,1,1,1,1,1,
1,1,1,1,1,1,1,1,1,1,1,1,1,1,1,1,1,1,1,1,
1,1,1,1,1,1,1,1,1,1,1,1,1,1,1,1,1,1,1,1,
1,1,1,1,1,1,1,1,1,1,1,1,1,1,1,1,1,1,1,1,
1,1,1,1,1,1,1,1,1,1,1,1,1,1,1,1,1,1,1,1,
1,1,1,1,1,1,1,1,1,1,1,1,1,1,1,1,1,1,1,1,
1,1,1,1,1,1,1,1,1,1,1,1,1,1,1,1,1,1,1,1,
1,1,1,1,1,1,1,1,1,1,1,1,1,1,1,1,1,1,1,1,
1,1,1,1,1,1,1,1,1,1,1,1,1,1,1,1,1,1,1,1,
1,1,1,1,1,1,1,1,1,1,1,1,1,1,1,1,1,1,1,1
</data>
 </layer>
 <layer id="2" name="button" width="20" height="10">
  <data encoding="csv">
0,0,24,25,26,27,26,27,28,26,26,27,26,27,28,77,78,79,0,0,
0,0,31,32,33,34,33,34,35,33,33,34,33,34,35,84,85,86,0,0,
0,0,38,39,40,41,40,41,42,40,40,41,40,41,42,91,92,93,0,0,
0,0,45,46,47,48,47,48,49,47,47,48,47,48,49,98,99,100,0,0,
0,0,52,53,54,55,54,55,56,54,54,55,54,55,56,105,106,107,0,0,
0,0,59,60,61,62,61,62,63,61,61,62,61,62,63,112,113,114,0,0,
0,0,0,0,0,0,0,0,0,0,0,0,0,0,0,0,0,0,0,0,
0,0,5,6,7,8,9,10,0,0,0,0,5,6,7,8,9,10,0,0,
0,0,11,12,13,14,15,16,0,0,0,0,11,12,13,14,15,16,0,0,
0,0,0,0,0,0,0,0,0,0,0,0,0,0,0,0,0,0,0,0
</data>
 </layer>
 <layer id="3" name="title" width="20" height="10">
  <data encoding="csv">
0,0,0,0,0,0,0,0,0,0,0,0,0,0,0,0,0,0,0,0,
0,0,0,0,0,0,0,0,0,0,0,0,0,0,0,0,0,0,0,0,
0,0,0,0,0,0,0,0,0,0,0,0,0,0,0,0,0,0,0,0,
0,0,0,0,0,0,0,0,0,0,0,0,0,0,0,0,0,0,0,0,
0,0,0,0,0,0,0,0,0,0,0,0,0,0,0,0,0,0,0,0,
0,0,0,0,0,0,0,0,0,0,0,0,0,0,0,0,0,0,0,0,
0,0,0,0,0,0,0,0,0,0,0,0,0,0,0,0,0,0,0,0,
0,0,0,0,0,0,0,0,0,0,0,0,0,0,0,0,0,0,0,0,
0,0,0,0,0,0,0,0,0,0,0,0,0,0,0,0,0,0,0,0,
0,0,0,0,0,0,0,0,0,0,0,0,0,0,0,0,0,0,0,0
</data>
 </layer>
</map>
