<?xml version="1.0" encoding="UTF-8"?>
<map version="1.10" tiledversion="1.11.2" orientation="orthogonal" renderorder="right-down" width="20" height="30" tilewidth="25" tileheight="25" infinite="0" nextlayerid="4" nextobjectid="1">
 <tileset firstgid="1" source="Water.tsx"/>
 <tileset firstgid="5" source="Banner_Connection_Left.tsx"/>
 <tileset firstgid="54" source="Banner_Connection_Right.tsx"/>
 <tileset firstgid="103" source="Ribbon_Red_3Slides.tsx"/>
 <layer id="1" name="water" width="20" height="30">
  <data encoding="csv">
1,1,1,1,1,1,1,1,1,1,1,1,1,1,1,1,1,1,1,1,
1,1,1,1,1,1,1,1,1,1,1,1,1,1,1,1,1,1,1,1,
1,1,1,1,1,1,1,1,1,1,1,1,1,1,1,1,1,1,1,1,
1,1,1,1,1,1,1,1,1,1,1,1,1,1,1,1,1,1,1,1,
1,1,1,1,1,1,1,1,1,1,1,1,1,1,1,1,1,1,1,1,
1,1,1,1,1,1,1,1,1,1,1,1,1,1,1,1,1,1,1,1,
1,1,1,1,1,1,1,1,1,1,1,1,1,1,1,1,1,1,1,1,
1,1,1,1,1,1,1,1,1,1,1,1,1,1,1,1,1,1,1,1,
1,1,1,1,1,1,1,1,1,1,1,1,1,1,1,1,1,1,1,1,
1,1,1,1,1,1,1,1,1,1,1,1,1,1,1,1,1,1,1,1,
1,1,1,1,1,1,1,1,1,1,1,1,1,1,1,1,1,1,1,1,
1,1,1,1,1,1,1,1,1,1,1,1,1,1,1,1,1,1,1,1,
1,1,1,1,1,1,1,1,1,1,1,1,1,1,1,1,1,1,1,1,
1,1,1,1,1,1,1,1,1,1,1,1,1,1,1,1,1,1,1,1,
1,1,1,1,1,1,1,1,1,1,1,1,1,1,1,1,1,1,1,1,
1,1,1,1,1,1,1,1,1,1,1,1,1,1,1,1,1,1,1,1,
1,1,1,1,1,1,1,1,1,1,1,1,1,1,1,1,1,1,1,1,
1,1,1,1,1,1,1,1,1,1,1,1,1,1,1,1,1,1,1,1,
1,1,1,1,1,1,1,1,1,1,1,1,1,1,1,1,1,1,1,1,
1,1,1,1,1,1,1,1,1,1,1,1,1,1,1,1,1,1,1,1,
1,1,1,1,1,1,1,1,1,1,1,1,1,1,1,1,1,1,1,1,
1,1,1,1,1,1,1,1,1,1,1,1,1,1,1,1,1,1,1,1,
1,1,1,1,1,1,1,1,1,1,1,1,1,1,1,1,1,1,1,1,
1,1,1,1,1,1,1,1,1,1,1,1,1,1,1,1,1,1,1,1,
1,1,1,1,1,1,1,1,1,1,1,1,1,1,1,1,1,1,1,1,
1,1,1,1,1,1,1,1,1,1,1,1,1,1,1,1,1,1,1,1,
1,1,1,1,1,1,1,1,1,1,1,1,1,1,1,1,1,1,1,1,
1,1,1,1,1,1,1,1,1,1,1,1,1,1,1,1,1,1,1,1,
1,1,1,1,1,1,1,1,1,1,1,1,1,1,1,1,1,1,1,1,
1,1,1,1,1,1,1,1,1,1,1,1,1,1,1,1,1,1,1,1
</data>
 </layer>
 <layer id="3" name="banner" width="20" height="30">
  <data encoding="csv">
0,0,12,13,14,15,16,14,15,14,15,14,15,16,64,65,66,67,0,0,
0,0,19,20,21,22,23,21,22,21,22,21,22,23,71,72,73,74,0,0,
0,0,26,27,28,29,30,28,29,28,29,28,29,30,78,79,80,81,0,0,
0,0,33,34,35,36,37,35,36,35,36,35,36,37,85,86,87,88,0,0,
0,0,40,41,42,43,44,42,43,42,43,42,43,44,92,93,94,95,0,0,
0,0,47,48,49,50,51,49,50,49,50,49,50,51,99,100,101,102,0,0,
0,0,0,12,13,14,15,64,65,64,65,64,65,66,65,66,67,0,0,0,
0,0,0,19,20,21,22,71,72,71,72,71,72,73,72,73,74,0,0,0,
0,0,0,26,27,28,29,78,79,78,79,78,79,80,79,80,81,0,0,0,
0,0,0,40,41,42,43,44,92,93,92,92,93,92,93,94,95,0,0,0,
0,0,0,47,48,49,50,51,99,100,99,99,100,99,100,101,102,0,0,0,
0,0,0,0,0,0,0,0,0,0,0,0,0,0,0,0,0,0,0,0,
0,0,0,19,20,21,22,71,72,71,72,71,72,73,72,73,74,0,0,0,
0,0,0,26,27,28,29,78,79,78,79,78,79,80,79,80,81,0,0,0,
0,0,0,40,41,42,43,44,92,93,92,92,93,92,93,94,95,0,0,0,
0,0,0,47,48,49,50,51,99,100,99,99,100,99,100,101,102,0,0,0,
0,0,0,0,0,0,0,0,0,0,0,0,0,0,0,0,0,0,0,0,
0,0,0,19,20,21,22,71,72,71,72,71,72,73,72,73,74,0,0,0,
0,0,0,26,27,28,29,78,79,78,79,78,79,80,79,80,81,0,0,0,
0,0,0,40,41,42,43,44,92,93,92,92,93,92,93,94,95,0,0,0,
0,0,0,47,48,49,50,51,99,100,99,99,100,99,100,101,102,0,0,0,
0,0,0,0,0,0,0,0,0,0,0,0,0,0,0,0,0,0,0,0,
0,0,0,19,20,21,22,71,72,71,72,71,72,73,72,73,74,0,0,0,
0,0,0,26,27,28,29,78,79,78,79,78,79,80,79,80,81,0,0,0,
0,0,0,40,41,42,43,44,92,93,92,92,93,92,93,94,95,0,0,0,
0,0,0,47,48,49,50,51,99,100,99,99,100,99,100,101,102,0,0,0,
0,0,0,0,0,0,0,0,0,0,0,0,0,0,0,0,0,0,0,0,
0,0,0,0,0,0,0,103,104,105,106,107,108,0,0,0,0,0,0,0,
0,0,0,0,0,0,0,109,110,111,112,113,114,0,0,0,0,0,0,0,
0,0,0,0,0,0,0,0,0,0,0,0,0,0,0,0,0,0,0,0
</data>
 </layer>
</map>
